X: 1
T: All Around The Christmas Tree
R: jig
M: 6/8
L: 1/8
K: Dmaj
f2 A fed|Bcd cde|f2 A fed|faa afa|
bag a2 f|gfe f2 d|ecA gfe|1 d3 d2 e:|2 d2 c Bcd||
eAA eAA|dcd Bcd|eAA efg|fed e2 d|
eAA eAA|d2 d cde|faf gfe|1 d2 c Bcd:|2 d2 A def||
g2 g fgf|e2 A cBA|fef afe|d2 A def|
g2 g fgf|e2 A cBA|fed Adc|1 d2 A def:|2 d3 d2 e||

